svgs/church_tools.svg

<svg viewBox="0 0 192 192" xml:space="preserve" style="fill-rule:evenodd;clip-rule:evenodd;stroke-linejoin:round;stroke-miterlimit:2" xmlns="http://www.w3.org/2000/svg"><path d="M85.19 388a6 6 0 0 0 5.646-3.969s2.179-5.678 2.179-18.717c0-28.879-20.109-48.508-51.668-51.815-8.812-.924-19.414-.809-19.414-.809a6 6 0 0 0-5.933 6v26.862a6.002 6.002 0 0 0 6.248 5.994s20.966-.987 31.088.098c.17 1.841.202 4.004.185 6.282-.078 10.546-1.768 23.287-1.768 23.287A6 6 0 0 0 57.701 388H85.19ZM176 320.462a6 6 0 0 0-3.969-5.646s-5.546-2.131-18.281-2.131c-28.206 0-47.386 19.633-50.616 50.457-.9 8.59-.789 18.925-.789 18.925a6.001 6.001 0 0 0 6 5.933h26.16a6.002 6.002 0 0 0 5.994-6.248s-.956-20.241.08-30.124c1.759-.156 3.814-.184 5.975-.168 10.262.076 22.659 1.72 22.659 1.72a5.997 5.997 0 0 0 6.787-5.948v-26.77Zm-12 4.851v15.205c-4.801-.479-11.415-1.014-17.357-1.058-5.307-.039-10.13.379-13.109 1.338a5.999 5.999 0 0 0-3.956 4.152c-1.506 5.593-1.415 21.968-1.233 31.05h-13.948c.079-3.369.261-7.684.672-11.607 2.505-23.908 16.803-39.708 38.681-39.708 4.557 0 7.934.302 10.25.628ZM80.349 376H64.418c.496-4.939 1.057-11.816 1.103-17.985.04-5.429-.386-10.363-1.366-13.41a5.998 5.998 0 0 0-4.152-3.957C54.234 339.095 37.281 339.2 28 339.39v-14.65c3.486.078 8 .264 12.097.694 24.643 2.582 40.918 17.33 40.918 39.88 0 4.777-.323 8.296-.666 10.686Zm91.682-74.816a6 6 0 0 0 3.969-5.646v-26.77a5.998 5.998 0 0 0-6.787-5.948s-12.397 1.644-22.659 1.72c-2.161.016-4.216-.012-5.975-.167-1.036-9.884-.08-30.125-.08-30.125a6 6 0 0 0-5.994-6.248h-26.16a6.001 6.001 0 0 0-6 5.933s-.111 10.335.789 18.925c3.23 30.824 22.41 50.457 50.616 50.457 12.735 0 18.281-2.131 18.281-2.131Zm-81.195-69.215A6 6 0 0 0 85.19 228H57.701a6 6 0 0 0-5.948 6.787s1.69 12.741 1.768 23.287c.017 2.278-.015 4.441-.185 6.282-10.122 1.085-31.088.098-31.088.098A6 6 0 0 0 16 270.448v26.862a6 6 0 0 0 5.933 6s10.602.115 19.414-.809c31.559-3.307 51.668-22.936 51.668-51.815 0-13.039-2.179-18.717-2.179-18.717ZM164 290.687c-2.316.326-5.693.628-10.25.628-21.878 0-36.176-15.8-38.681-39.708-.411-3.923-.593-8.238-.672-11.607h13.948c-.182 9.082-.273 25.457 1.233 31.05a5.999 5.999 0 0 0 3.956 4.152c2.979.959 7.802 1.377 13.109 1.338 5.942-.044 12.556-.579 17.357-1.058v15.205ZM80.349 240c.343 2.39.666 5.909.666 10.686 0 22.55-16.275 37.298-40.918 39.88-4.097.43-8.611.616-12.097.694v-14.65c9.281.19 26.234.295 32.003-1.258a5.998 5.998 0 0 0 4.152-3.957c.98-3.047 1.406-7.981 1.366-13.41-.046-6.169-.607-13.046-1.103-17.985h15.931Z" style="fill-rule:evenodd;clip-rule:evenodd;stroke-linejoin:round;stroke-miterlimit:2" transform="translate(0 -212)"/></svg>

<?xml version="1.0" encoding="UTF-8" standalone="no"?>
<svg
   width="100%"
   height="100%"
   viewBox="0 0 192 192"
   version="1.1"
   xml:space="preserve"
   style="fill-rule:evenodd;clip-rule:evenodd;stroke-linejoin:round;stroke-miterlimit:2;"
   id="svg10"
   sodipodi:docname="church_tools.svg"
   inkscape:version="1.2.1 (9c6d41e410, 2022-07-14)"
   xmlns:inkscape="http://www.inkscape.org/namespaces/inkscape"
   xmlns:sodipodi="http://sodipodi.sourceforge.net/DTD/sodipodi-0.dtd"
   xmlns="http://www.w3.org/2000/svg"
   xmlns:svg="http://www.w3.org/2000/svg"><defs
   id="defs14" /><sodipodi:namedview
   id="namedview12"
   pagecolor="#ffffff"
   bordercolor="#000000"
   borderopacity="0.25"
   inkscape:showpageshadow="2"
   inkscape:pageopacity="0.0"
   inkscape:pagecheckerboard="0"
   inkscape:deskcolor="#d1d1d1"
   showgrid="false"
   inkscape:zoom="5.3489583"
   inkscape:cx="96"
   inkscape:cy="95.906524"
   inkscape:window-width="1274"
   inkscape:window-height="1303"
   inkscape:window-x="1282"
   inkscape:window-y="36"
   inkscape:window-maximized="0"
   inkscape:current-layer="svg10" />
    <path
   d="M85.19,388C87.721,388 89.979,386.412 90.836,384.031C90.836,384.031 93.015,378.353 93.015,365.314C93.015,336.435 72.906,316.806 41.347,313.499C32.535,312.575 21.933,312.69 21.933,312.69C18.646,312.727 16,315.402 16,318.69L16,345.552C16,347.186 16.667,348.749 17.846,349.881C19.025,351.012 20.615,351.614 22.248,351.546C22.248,351.546 43.214,350.559 53.336,351.644C53.506,353.485 53.538,355.648 53.521,357.926C53.443,368.472 51.753,381.213 51.753,381.213C51.527,382.927 52.05,384.655 53.189,385.955C54.328,387.255 55.973,388 57.701,388L85.19,388ZM176,320.462C176,317.931 174.412,315.673 172.031,314.816C172.031,314.816 166.485,312.685 153.75,312.685C125.544,312.685 106.364,332.318 103.134,363.142C102.234,371.732 102.345,382.067 102.345,382.067C102.382,385.354 105.058,388 108.345,388L134.505,388C136.139,388 137.702,387.333 138.834,386.154C139.965,384.975 140.567,383.385 140.499,381.752C140.499,381.752 139.543,361.511 140.579,351.628C142.338,351.472 144.393,351.444 146.554,351.46C156.816,351.536 169.213,353.18 169.213,353.18C170.927,353.407 172.655,352.884 173.955,351.744C175.255,350.605 176,348.961 176,347.232L176,320.462ZM164,325.313L164,340.518C159.199,340.039 152.585,339.504 146.643,339.46C141.336,339.421 136.513,339.839 133.534,340.798C131.597,341.421 130.107,342.984 129.578,344.95C128.072,350.543 128.163,366.918 128.345,376C128.345,376 114.397,376 114.397,376C114.476,372.631 114.658,368.316 115.069,364.393C117.574,340.485 131.872,324.685 153.75,324.685C158.307,324.685 161.684,324.987 164,325.313L164,325.313ZM80.349,376L64.418,376C64.914,371.061 65.475,364.184 65.521,358.015C65.561,352.586 65.135,347.652 64.155,344.605C63.532,342.667 61.969,341.177 60.003,340.648C54.234,339.095 37.281,339.2 28,339.39C28,339.39 28,324.74 28,324.74C31.486,324.818 36,325.004 40.097,325.434C64.74,328.016 81.015,342.764 81.015,365.314C81.015,370.091 80.692,373.61 80.349,376L80.349,376ZM172.031,301.184C174.412,300.327 176,298.069 176,295.538L176,268.768C176,267.039 175.255,265.395 173.955,264.256C172.655,263.116 170.927,262.593 169.213,262.82C169.213,262.82 156.816,264.464 146.554,264.54C144.393,264.556 142.338,264.528 140.579,264.373C139.543,254.489 140.499,234.248 140.499,234.248C140.567,232.615 139.965,231.025 138.834,229.846C137.702,228.667 136.139,228 134.505,228L108.345,228C105.058,228 102.382,230.646 102.345,233.933C102.345,233.933 102.234,244.268 103.134,252.858C106.364,283.682 125.544,303.315 153.75,303.315C166.485,303.315 172.031,301.184 172.031,301.184ZM90.836,231.969C89.979,229.588 87.721,228 85.19,228L57.701,228C55.973,228 54.328,228.745 53.189,230.045C52.05,231.345 51.527,233.073 51.753,234.787C51.753,234.787 53.443,247.528 53.521,258.074C53.538,260.352 53.506,262.515 53.336,264.356C43.214,265.441 22.248,264.454 22.248,264.454C20.615,264.386 19.025,264.988 17.846,266.119C16.667,267.251 16,268.814 16,270.448L16,297.31C16,300.598 18.646,303.273 21.933,303.31C21.933,303.31 32.535,303.425 41.347,302.501C72.906,299.194 93.015,279.565 93.015,250.686C93.015,237.647 90.836,231.969 90.836,231.969ZM164,290.687C161.684,291.013 158.307,291.315 153.75,291.315C131.872,291.315 117.574,275.515 115.069,251.607C114.658,247.684 114.476,243.369 114.397,240C114.397,240 128.345,240 128.345,240C128.163,249.082 128.072,265.457 129.578,271.05C130.107,273.016 131.597,274.579 133.534,275.202C136.513,276.161 141.336,276.579 146.643,276.54C152.585,276.496 159.199,275.961 164,275.482L164,290.687ZM80.349,240C80.692,242.39 81.015,245.909 81.015,250.686C81.015,273.236 64.74,287.984 40.097,290.566C36,290.996 31.486,291.182 28,291.26C28,291.26 28,276.61 28,276.61C37.281,276.8 54.234,276.905 60.003,275.352C61.969,274.823 63.532,273.333 64.155,271.395C65.135,268.348 65.561,263.414 65.521,257.985C65.475,251.816 64.914,244.939 64.418,240L80.349,240Z"
   id="path4"
   style="fill-rule:evenodd;clip-rule:evenodd;stroke-linejoin:round;stroke-miterlimit:2"
   transform="translate(0,-212)"
   inkscape:label="ChurchTools-Form" />
</svg>
